1.5 'Kruger 60'/Logos/Sources/Gol.svg

<?xml version="1.0" encoding="UTF-8" standalone="no"?>
<svg
   xmlns:dc="http://purl.org/dc/elements/1.1/"
   xmlns:cc="http://creativecommons.org/ns#"
   xmlns:rdf="http://www.w3.org/1999/02/22-rdf-syntax-ns#"
   xmlns:svg="http://www.w3.org/2000/svg"
   xmlns="http://www.w3.org/2000/svg"
   xmlns:sodipodi="http://sodipodi.sourceforge.net/DTD/sodipodi-0.dtd"
   xmlns:inkscape="http://www.inkscape.org/namespaces/inkscape"
   width="500mm"
   height="500mm"
   viewBox="0 0 1417.3229 1417.3228"
   version="1.1"
   id="svg8"
   sodipodi:docname="gol.svg"
   inkscape:version="0.92.4 (5da689c313, 2019-01-14)">
  <metadata
     id="metadata14">
    <rdf:RDF>
      <cc:Work
         rdf:about="">
        <dc:format>image/svg+xml</dc:format>
        <dc:type
           rdf:resource="http://purl.org/dc/dcmitype/StillImage" />
        <dc:title></dc:title>
      </cc:Work>
    </rdf:RDF>
  </metadata>
  <defs
     id="defs12" />
  <sodipodi:namedview
     pagecolor="#ffffff"
     bordercolor="#666666"
     borderopacity="1"
     objecttolerance="10"
     gridtolerance="10"
     guidetolerance="10"
     inkscape:pageopacity="0"
     inkscape:pageshadow="2"
     inkscape:window-width="1920"
     inkscape:window-height="1017"
     id="namedview10"
     showgrid="false"
     units="mm"
     inkscape:zoom="0.21273128"
     inkscape:cx="-278.02251"
     inkscape:cy="-104.63838"
     inkscape:window-x="-8"
     inkscape:window-y="-8"
     inkscape:window-maximized="1"
     inkscape:current-layer="svg8" />
  <g
     id="#a52b31ff"
     transform="matrix(7.9357774,0,0,7.9357774,8.4366127,566.20155)">
    <path
       d="M 2.49,25.38 C -2.68,15.87 4.12,2.71 14.77,1.17 30.65,1.11 46.59,0.83 62.45,1.32 61.01,3.73 59.62,6.16 58.26,8.62 51.13,8.75 43.99,8.64 36.86,8.66 33.14,14.93 29.58,21.29 26,27.63 c 2.41,-0.02 4.95,0.41 7.3,-0.17 2.62,-4.69 5.19,-9.49 8.09,-13.98 7.13,-0.24 14.42,0.33 21.46,-0.28 1.94,-7.5 9.54,-12.76 17.16,-12.56 8.66,0.02 17.32,0.01 25.98,0 8.03,0.1 16.52,5.07 18.32,13.33 3.04,-3.98 5.24,-8.66 7.66,-13.07 9.24,-0.59 18.62,-0.09 27.91,-0.25 -3.8,6.03 -7.09,12.36 -10.7,18.5 -0.81,1.48 -1.92,2.84 -2.2,4.55 9.59,-0.03 19.18,0.06 28.77,-0.05 -1.88,4.01 -4.17,7.88 -6.57,11.61 -11.09,-0.05 -22.18,0.01 -33.27,-0.03 -5.55,-0.97 -9.98,-5.35 -12.04,-10.46 -1.34,1.13 -1.91,2.83 -3.02,4.13 -3.57,4.32 -9.28,6.64 -14.84,6.35 -8.67,-0.16 -17.4,0.29 -26.04,-0.23 -8.01,-0.72 -16.36,-5.6 -17.78,-14.1 -2.7,4.44 -5.22,9 -7.76,13.53 -0.3,0.21 -0.9,0.63 -1.2,0.85 -10.77,-0.14 -21.54,0 -32.31,-0.07 -6.96,-0.88 -15,-3.07 -18.43,-9.85 m 82.94,-1.01 c -0.52,1.06 -1.56,2.09 -1.32,3.36 2.18,-0.05 4.37,0.07 6.56,-0.09 3.87,-6.52 7.73,-13.18 11.32,-19.89 -2.34,-0.19 -4.7,-0.09 -7.05,-0.04 -3.16,5.55 -6.31,11.12 -9.51,16.66 z"
       id="path5"
       inkscape:connector-curvature="0"
       style="opacity:1;fill:#a52b31" />
  </g>
</svg>

<?xml version="1.0" encoding="UTF-8" ?>
<!DOCTYPE svg PUBLIC "-//W3C//DTD SVG 1.1//EN" "http://www.w3.org/Graphics/SVG/1.1/DTD/svg11.dtd">
<svg width="177pt" height="37pt" viewBox="0 0 177 37" version="1.1" xmlns="http://www.w3.org/2000/svg">
<g id="#390f1158">
<path fill="#390f11" opacity="0.35" d=" M 14.99 0.00 L 63.10 0.00 C 62.94 0.33 62.61 0.99 62.45 1.32 C 46.59 0.83 30.65 1.11 14.77 1.17 L 14.99 0.00 Z" />
</g>
<g id="#a52b31ff">
<path fill="#a52b31" opacity="1.00" d=" M 2.49 25.38 C -2.68 15.87 4.12 2.71 14.77 1.17 C 30.65 1.11 46.59 0.83 62.45 1.32 C 61.01 3.73 59.62 6.16 58.26 8.62 C 51.13 8.75 43.99 8.64 36.86 8.66 C 33.14 14.93 29.58 21.29 26.00 27.63 C 28.41 27.61 30.95 28.04 33.30 27.46 C 35.92 22.77 38.49 17.97 41.39 13.48 C 48.52 13.24 55.81 13.81 62.85 13.20 C 64.79 5.70 72.39 0.44 80.01 0.64 C 88.67 0.66 97.33 0.65 105.99 0.64 C 114.02 0.74 122.51 5.71 124.31 13.97 C 127.35 9.99 129.55 5.31 131.97 0.90 C 141.21 0.31 150.59 0.81 159.88 0.65 C 156.08 6.68 152.79 13.01 149.18 19.15 C 148.37 20.63 147.26 21.99 146.98 23.70 C 156.57 23.67 166.16 23.76 175.75 23.65 C 173.87 27.66 171.58 31.53 169.18 35.26 C 158.09 35.21 147.00 35.27 135.91 35.23 C 130.36 34.26 125.93 29.88 123.87 24.77 C 122.53 25.90 121.96 27.60 120.85 28.90 C 117.28 33.22 111.57 35.54 106.01 35.25 C 97.34 35.09 88.61 35.54 79.97 35.02 C 71.96 34.30 63.61 29.42 62.19 20.92 C 59.49 25.36 56.97 29.92 54.43 34.45 C 54.13 34.66 53.53 35.08 53.23 35.30 C 42.46 35.16 31.69 35.30 20.92 35.23 C 13.96 34.35 5.92 32.16 2.49 25.38 M 85.43 24.37 C 84.91 25.43 83.87 26.46 84.11 27.73 C 86.29 27.68 88.48 27.80 90.67 27.64 C 94.54 21.12 98.40 14.46 101.99 7.75 C 99.65 7.56 97.29 7.66 94.94 7.71 C 91.78 13.26 88.63 18.83 85.43 24.37 Z" />
</g>
</svg>
